assets/img/braze_icons/channel-webhook.svg

<svg fill="none" height="24" viewBox="0 0 24 24" width="24" xmlns="http://www.w3.org/2000/svg"><path clip-rule="evenodd" d="m9.17157 2.17157c1.56213-1.562094 4.09473-1.562094 5.65683 0 1.5621 1.5621 1.5621 4.09476 0 5.65686-.0511.05115-.1033.10063-.1565.14843l2.206 4.04424-1.7558.9578-2.2255-4.08014c-1.2975.29709-2.7144-.05969-3.72503-1.07033-1.56209-1.5621-1.56209-4.09476 0-5.65686zm-3.31165 11.92143 2.26592-4.0786 1.74832.9712-2.22954 4.0132c.06262.0553.12393.1129.18381.1728 1.56209 1.5621 1.56209 4.0947 0 5.6568-1.5621 1.5621-4.09476 1.5621-5.65686 0-1.562094-1.5621-1.562094-4.0947 0-5.6568 1.00113-1.0012 2.4009-1.3607 3.68835-1.0786zm10.31168 1.0786c1.5621-1.5621 4.0947-1.5621 5.6568 0s1.5621 4.0947 0 5.6568-4.0947 1.5621-5.6568 0c-.5246-.5245-.873-1.1585-1.0452-1.8284h-4.1264v-2h4.1264c.1722-.6699.5206-1.3039 1.0452-1.8284z" fill="#801ed7" fill-rule="evenodd"/></svg>

<svg width="24" height="24" viewBox="0 0 24 24" fill="none" xmlns="http://www.w3.org/2000/svg">
<path fill-rule="evenodd" clip-rule="evenodd" d="M9.17157 2.17157C10.7337 0.609476 13.2663 0.609476 14.8284 2.17157C16.3905 3.73367 16.3905 6.26633 14.8284 7.82843C14.7773 7.87958 14.7251 7.92906 14.6719 7.97686L16.8779 12.0211L15.1221 12.9789L12.8966 8.89876C11.5991 9.19585 10.1822 8.83907 9.17157 7.82843C7.60948 6.26633 7.60948 3.73367 9.17157 2.17157ZM5.85992 14.093L8.12584 10.0144L9.87416 10.9856L7.64462 14.9988C7.70724 15.0541 7.76855 15.1117 7.82843 15.1716C9.39052 16.7337 9.39052 19.2663 7.82843 20.8284C6.26633 22.3905 3.73367 22.3905 2.17157 20.8284C0.609476 19.2663 0.609476 16.7337 2.17157 15.1716C3.1727 14.1704 4.57247 13.8109 5.85992 14.093ZM16.1716 15.1716C17.7337 13.6095 20.2663 13.6095 21.8284 15.1716C23.3905 16.7337 23.3905 19.2663 21.8284 20.8284C20.2663 22.3905 17.7337 22.3905 16.1716 20.8284C15.647 20.3039 15.2986 19.6699 15.1264 19H11V17H15.1264C15.2986 16.3301 15.647 15.6961 16.1716 15.1716Z" fill="#801ED7"/>
</svg>
